src/components/00-materials/images-raw/Savings Dollar.svg

<svg width="96" height="96" viewBox="0 0 96 96" fill="none" xmlns="http://www.w3.org/2000/svg">
<path d="M23 54V38M14 33V24C14 22.9391 14.4214 21.9217 15.1716 21.1716C15.9217 20.4214 16.9391 20 18 20H78C79.0609 20 80.0783 20.4214 80.8284 21.1716C81.5786 21.9217 82 22.9391 82 24V68C82 69.0609 81.5786 70.0783 80.8284 70.8284C80.0783 71.5786 79.0609 72 78 72H18C16.9391 72 15.9217 71.5786 15.1716 70.8284C14.4214 70.0783 14 69.0609 14 68V33Z" stroke="#00008F" stroke-width="2" stroke-linecap="round" stroke-linejoin="round"/>
<path d="M23 33V26C23 25.7348 23.1054 25.4804 23.2929 25.2929C23.4804 25.1054 23.7348 25 24 25H76C76.2652 25 76.5196 25.1054 76.7071 25.2929C76.8946 25.4804 77 25.7348 77 26V66C77 66.2652 76.8946 66.5196 76.7071 66.7071C76.5196 66.8946 76.2652 67 76 67H24C23.7348 67 23.4804 66.8946 23.2929 66.7071C23.1054 66.5196 23 66.2652 23 66V59" stroke="#00008F" stroke-width="2" stroke-linecap="round" stroke-linejoin="round"/>
<path d="M25.5 33H20.5C19.1193 33 18 34.1193 18 35.5C18 36.8807 19.1193 38 20.5 38H25.5C26.8807 38 28 36.8807 28 35.5C28 34.1193 26.8807 33 25.5 33Z" stroke="#00008F" stroke-width="2" stroke-linecap="round" stroke-linejoin="round"/>
<path d="M25.5 54H20.5C19.1193 54 18 55.1193 18 56.5C18 57.8807 19.1193 59 20.5 59H25.5C26.8807 59 28 57.8807 28 56.5C28 55.1193 26.8807 54 25.5 54Z" stroke="#00008F" stroke-width="2" stroke-linecap="round" stroke-linejoin="round"/>
<path d="M70 33V59M23 72H32V77H23V72ZM64 72H73V77H64V72Z" stroke="#00008F" stroke-width="2" stroke-linecap="round" stroke-linejoin="round"/>
<path d="M48 59C55.1797 59 61 53.1797 61 46C61 38.8203 55.1797 33 48 33C40.8203 33 35 38.8203 35 46C35 53.1797 40.8203 59 48 59Z" stroke="#00008F" stroke-width="2" stroke-linecap="round" stroke-linejoin="round"/>
<path d="M44.07 50.38C44.3395 51.1922 44.8725 51.891 45.5845 52.3657C46.2965 52.8404 47.1467 53.0636 48 53C50.21 53 52 51.59 52 49.85C51.9959 49.5738 51.9346 49.3014 51.82 49.05C51.5552 48.5012 51.1388 48.0396 50.62 47.72L48 46L45.38 44.28C44.8682 43.9739 44.4525 43.5304 44.18 43C44.0654 42.7486 44.0041 42.4762 44 42.2C44 40.41 45.79 39 48 39C48.8549 38.9352 49.7068 39.1592 50.4194 39.6361C51.1319 40.1129 51.6638 40.815 51.93 41.63M48 37V55V37Z" stroke="#00008F" stroke-width="2" stroke-linecap="round" stroke-linejoin="round"/>
</svg>

<svg width="96" height="96" viewBox="0 0 96 96" fill="none" xmlns="http://www.w3.org/2000/svg"><path d="M23 54V38m-9-5v-9a4 4 0 014-4h60a4 4 0 014 4v44a4 4 0 01-4 4H18a4 4 0 01-4-4V33z" stroke="#00008F" stroke-width="2" stroke-linecap="round" stroke-linejoin="round"/><path d="M23 33v-7a1 1 0 011-1h52a1 1 0 011 1v40a1 1 0 01-1 1H24a1 1 0 01-1-1v-7" stroke="#00008F" stroke-width="2" stroke-linecap="round" stroke-linejoin="round"/><path d="M25.5 33h-5a2.5 2.5 0 000 5h5a2.5 2.5 0 000-5zM25.5 54h-5a2.5 2.5 0 000 5h5a2.5 2.5 0 000-5zM70 33v26M23 72h9v5h-9v-5zm41 0h9v5h-9v-5zM48 59c7.18 0 13-5.82 13-13s-5.82-13-13-13-13 5.82-13 13 5.82 13 13 13z" stroke="#00008F" stroke-width="2" stroke-linecap="round" stroke-linejoin="round"/><path d="M44.07 50.38A3.84 3.84 0 0048 53c2.21 0 4-1.41 4-3.15a2 2 0 00-.18-.8 3.19 3.19 0 00-1.2-1.33L48 46l-2.62-1.72a3.19 3.19 0 01-1.2-1.28 2 2 0 01-.18-.8c0-1.79 1.79-3.2 4-3.2a3.83 3.83 0 013.93 2.63M48 37v18-18z" stroke="#00008F" stroke-width="2" stroke-linecap="round" stroke-linejoin="round"/></svg>
